svg/24/margin-set.svg

<svg width="24" height="24" viewBox="0 0 24 24" fill="currentColor" xmlns="http://www.w3.org/2000/svg"><path fill-rule="evenodd" clip-rule="evenodd" d="M19.5 8H17.5V11C16.9837 11 16.4815 11.0602 16 11.1739V8L8 8V16H11.1739C11.0602 16.4815 11 16.9837 11 17.5H8V19.5H11.3135C11.4858 20.0335 11.7253 20.5368 12.0218 21H5C3.89543 21 3 20.1046 3 19V5C3 3.89543 3.89543 3 5 3H19C20.1046 3 21 3.89543 21 5V12.0218C20.5368 11.7253 20.0335 11.4858 19.5 11.3135V8ZM19 4.5H17.5V6.5H19.5V5C19.5 4.72386 19.2761 4.5 19 4.5ZM16 6.5V4.5H8V6.5L16 6.5ZM6.5 6.5V4.5H5C4.72386 4.5 4.5 4.72386 4.5 5V6.5H6.5ZM4.5 8H6.5V16H4.5V8ZM4.5 17.5H6.5V19.5H5C4.72386 19.5 4.5 19.2761 4.5 19V17.5Z"/><path fill-rule="evenodd" clip-rule="evenodd" d="M23 17.5C23 20.5376 20.5376 23 17.5 23C14.4624 23 12 20.5376 12 17.5C12 14.4624 14.4624 12 17.5 12C20.5376 12 23 14.4624 23 17.5ZM19.5001 14.9999C19.7762 14.9999 20.0001 15.2238 20.0001 15.4999V18.3284C20.0001 18.6045 19.7762 18.8284 19.5001 18.8284C19.2239 18.8284 19.0001 18.6045 19.0001 18.3284V16.707L15.8535 19.8536C15.6582 20.0489 15.3416 20.0489 15.1464 19.8536C14.9511 19.6584 14.9511 19.3418 15.1464 19.1465L18.293 15.9999H16.6716C16.3955 15.9999 16.1716 15.7761 16.1716 15.4999C16.1716 15.2238 16.3955 14.9999 16.6716 14.9999H19.5001Z"/></svg>

<svg xmlns="http://www.w3.org/2000/svg" width="24" height="24" fill="currentColor" viewBox="0 0 24 24">
  <path fill-rule="evenodd" d="M19.5 8h-2v3a6.52 6.52 0 0 0-1.5.174V8H8v8h3.174A6.52 6.52 0 0 0 11 17.5H8v2h3.313c.173.534.412 1.037.709 1.5H5a2 2 0 0 1-2-2V5a2 2 0 0 1 2-2h14a2 2 0 0 1 2 2v7.022a6.471 6.471 0 0 0-1.5-.709V8ZM19 4.5h-1.5v2h2V5a.5.5 0 0 0-.5-.5Zm-3 2v-2H8v2h8Zm-9.5 0v-2H5a.5.5 0 0 0-.5.5v1.5h2ZM4.5 8h2v8h-2V8Zm0 9.5h2v2H5a.5.5 0 0 1-.5-.5v-1.5Z" clip-rule="evenodd"/>
  <path fill-rule="evenodd" d="M23 17.5a5.5 5.5 0 1 1-11 0 5.5 5.5 0 0 1 11 0ZM19.5 15a.5.5 0 0 1 .5.5v2.828a.5.5 0 0 1-1 0v-1.621l-3.146 3.147a.5.5 0 1 1-.708-.707L18.293 16h-1.621a.5.5 0 1 1 0-1H19.5Z" clip-rule="evenodd"/>
</svg>
